!!!COM: Fanny (Mendelssohn) Hensel
!!!CNT: Deutsch
!!!TXO: Deutsch
!!!OTL: "Im Herbste"
!!!LYR: Geibel, Emanuel
!!!OPR: 
!!!OPS: Op. 1-
!!!ONM: No. 4
!!!ENC: Emily Thomas
!!!YOR: Hensel: Ausgewa2hlte Lieder fu2r Singstimme und Klavier
!!!YOR: Breitkopf & Hartel, 1994
!!!ODT: 1846/
!!NB: Vocal melody and text encoded.
**kern	**silbe
=1-	=1
*clefG2	*
*k[b-e-]	*
*M4/4	*
*MM[Adagio]	*
2r	.
4r	.
{8dd	{Auf
8dd	des
=2	=2
4ee-	Gar-
4dd	-tens
4cc	Mau-
4b-	-er-
=3	=3
4b-	-zin-
4a}	-ne}
4r	.
{8b-	{bebt
8a	noch
=4	=4
4.dd	ei-
8dd	-ne
4.ee-	einz'-
8dd	-ge
=5	=5
4dd	Ran-
4cc#}	-ke,}
{4ccn	{al-
4cc	-so
=6	=6
4ee-	bebt
8cc	in
8cc	|
4cc	mei-
4cc	-nem
=7	=7
4ee-	Sin-
8cc	-ne
8cc	|
4ff	schmerz-
8ee-	-lich
8dd	|
=8	=8
4dd	nur
4cc	noch
4b-}	ein,}
{4en	{noch
=9	=9
4.f	ein
8f	Ge-
2ee-	-dan-
=10	=10
4dd}	ke.}
4r	.
2r	.
=11	=11
1r	.
=12	=12
2r	.
{4.cc-	{kaum
8cc-	ver-
=13	=13
4cc-	mag
4b-	ich
4.a-	ihn
8b-	zu
=14	=14
4a-	fas-
4g-}	-sen,}
{4.cc-	{a-
8cc-	-ber
=15	=15
4ee-	den-
8dd-	-noch
8cc-	|
4.cc-	von
8b-	mir
=16	=16
4ff-	las-
8ee-	-sen
8dd-	|
4.dd-	will
8cc	er,
=17	=17
2gg-}	ach!}
8r	.
{8g-	{zu
8f	kei-
8e-	-ner
=18	=18
4b-}	Frist.}
4r	.
4r	.
{8b-	{Kaum
8b-	ver-
=19	=19
4.cc-	-mag
8cc-	ich
4.dd	ihn
8ff	zu
=20	=20
4ff	fas-
4ee-}	-sen,}
4r	.
{8b-	{a-
8b-	-ber
=21	=21
4.dd-	den-
8dd-	-noch
4.cc	von
8b-	mir
=22	=22
4.dd-	las-
8dd-	-sen
4cc	will
4b-	er,
=23	=23
2gg}	ach!}
8r	.
{8g	{zu
8a	kei-
8g	-ner
=24	=24
4f#}	Frist;}
4r	.
{4.a	{und
8a	so
=25	=25
8dd	denk
8b-	|
8a	ich
8g	|
4.f#	ihn
8f#	und
=26	=26
8dd	tra-
8b-	|
8a	-ge
8g	|
4.dd	al-
8dd	-le
=27	=27
8gg	Na2ch-
8ee-	|
8dd	-te,
8cc}	|}
{4.bn	al-
8bn	-le
=28	=28
2gg	Ta-
4ff#	|
4ffn	|
=29	=29
4een	|
4ee-	|
4dd}	-ge,}
{8cc	{mit
8b-	mir
=30	=30
8b-	fort
8g	|
8f	die
8e-	|
4.ee-	dump-
8ee-	-fe
=31	=31
4ee-	Kla-
4cc	-ge,
4b-	dass
4a-	du
=32	=32
4.g	mir
8f#	ver-
4.b-	-lo-
8a	-ren
=33	=33
4g}	bist,}
4r	.
{8dd	{dass
8ff	|
8ee-	du
8dd	|
=34	=34
4.cc#	mir
8cc#	ver-
8ccn	-lo-
8ee-	|
8dd	-ren
8cc	|
=35	=35
4bn}	bist,}
4r	.
{8b-	{dass
8dd-	|
8cc	du
8b-	|
=36	=36
4a	mir
8b-	|
8cc	ver-
4b-	-lo-
8a	|
8g	-ren
=37	=37
4g}	bist.}
4r	.
2r	.
==	==
*-	*-
